packages/bezier-icons/icons/screenshare.svg

<svg width="24" height="24" viewBox="0 0 24 24" fill="none" xmlns="http://www.w3.org/2000/svg">
<path d="M2 8C2 5.79086 3.79086 4 6 4H18C20.2091 4 22 5.79086 22 8V16C22 18.2091 20.2091 20 18 20H15.5C14.9477 20 14.5 19.5523 14.5 19C14.5 18.4477 14.9477 18 15.5 18H18C19.1046 18 20 17.1046 20 16V8C20 6.89543 19.1046 6 18 6H6C4.89543 6 4 6.89543 4 8V16C4 17.1046 4.89543 18 6 18H8.5C9.05228 18 9.5 18.4477 9.5 19C9.5 19.5523 9.05228 20 8.5 20H6C3.79086 20 2 18.2091 2 16V8Z" fill="#313234"/>
<path d="M13 11.4142V19C13 19.5523 12.5523 20 12 20C11.4477 20 11 19.5523 11 19V11.4142L8.70711 13.7071C8.31658 14.0976 7.68342 14.0976 7.29289 13.7071C6.90237 13.3166 6.90237 12.6834 7.29289 12.2929L10.5858 9C11.3668 8.21895 12.6332 8.21895 13.4142 9L16.7071 12.2929C17.0976 12.6834 17.0976 13.3166 16.7071 13.7071C16.3166 14.0976 15.6834 14.0976 15.2929 13.7071L13 11.4142Z" fill="#313234"/>
</svg>

<svg xmlns="http://www.w3.org/2000/svg" width="24" height="24" fill="none" viewBox="0 0 24 24"><path fill="#313234" d="M2 8a4 4 0 0 1 4-4h12a4 4 0 0 1 4 4v8a4 4 0 0 1-4 4h-2.5a1 1 0 1 1 0-2H18a2 2 0 0 0 2-2V8a2 2 0 0 0-2-2H6a2 2 0 0 0-2 2v8a2 2 0 0 0 2 2h2.5a1 1 0 1 1 0 2H6a4 4 0 0 1-4-4z"/><path fill="#313234" d="M13 11.414V19a1 1 0 1 1-2 0v-7.586l-2.293 2.293a1 1 0 0 1-1.414-1.414L10.586 9a2 2 0 0 1 2.828 0l3.293 3.293a1 1 0 0 1-1.414 1.414z"/></svg>
